assets/tab_profile.svg

<svg height="20" viewBox="0 0 5.0270833 5.2916668" width="19" xmlns="http://www.w3.org/2000/svg" xmlns:xlink="http://www.w3.org/1999/xlink"><mask id="a" fill="#fff"><path d="m0 0h21.083v8.956h-21.083z" fill="#fff" fill-rule="evenodd" height="100%" width="100%"/></mask><mask id="b" fill="#fff"><path d="m0 0h10.303v10.304h-10.303z" fill="#fff" fill-rule="evenodd" height="100%" width="100%"/></mask><g fill="#6b7387" fill-rule="evenodd" transform="scale(.90121137 .94856901)"><path d="m2.084 5.151c0-1.184 4.617-3.067 8.458-3.067 3.84 0 8.457 1.883 8.457 3.067v1.721h-16.915zm-2.084 3.805h21.083v-3.805c0-3.333-6.964-5.151-10.541-5.151-3.578 0-10.542 1.818-10.542 5.151z" mask="url(#a)" transform="matrix(.26458 0 0 .26458 0 3.209)"/><path d="m5.152 2.219a2.936 2.936 0 0 1 2.932 2.933 2.936 2.936 0 0 1 -2.932 2.933 2.937 2.937 0 0 1 -2.933-2.933 2.936 2.936 0 0 1 2.933-2.933m0 8.085a5.157 5.157 0 0 0 5.151-5.152 5.157 5.157 0 0 0 -5.151-5.152 5.157 5.157 0 0 0 -5.152 5.152 5.157 5.157 0 0 0 5.152 5.152" mask="url(#b)" transform="matrix(.26458 0 0 .26458 1.426 0)"/></g></svg>

<?xml version="1.0" encoding="UTF-8" standalone="no"?>
<svg
   xmlns:dc="http://purl.org/dc/elements/1.1/"
   xmlns:cc="http://creativecommons.org/ns#"
   xmlns:rdf="http://www.w3.org/1999/02/22-rdf-syntax-ns#"
   xmlns:svg="http://www.w3.org/2000/svg"
   xmlns="http://www.w3.org/2000/svg"
   xmlns:xlink="http://www.w3.org/1999/xlink"
   id="svg8"
   version="1.1"
   viewBox="0 0 5.0270833 5.2916668"
   height="20"
   width="19">
  <defs
     id="defs2">
    <path
       id="b"
       d="M 21.943219,20.317419 H 0 V 0.5154286 h 21.943219 z" />
    <path
       id="d"
       d="M 22,19.904762 H 0.084019 V 0.0996286 H 22 Z" />
    <filter
       style="color-interpolation-filters:auto"
       id="a">
      <feColorMatrix
         in="SourceGraphic"
         values="0 0 0 0 0.419608 0 0 0 0 0.450980 0 0 0 0 0.529412 0 0 0 1.000000 0"
         id="feColorMatrix4539" />
    </filter>
    <path
       id="a-0"
       d="M 0,0 H 21.083 V 8.956 H 0 Z" />
    <path
       id="c"
       d="M 0,0 H 10.303 V 10.304 H 0 Z" />
  </defs>
  <metadata
     id="metadata5">
    <rdf:RDF>
      <cc:Work
         rdf:about="">
        <dc:format>image/svg+xml</dc:format>
        <dc:type
           rdf:resource="http://purl.org/dc/dcmitype/StillImage" />
        <dc:title></dc:title>
      </cc:Work>
    </rdf:RDF>
  </metadata>
  <g
     transform="scale(0.90121137,0.94856901)"
     style="fill:#6b7387;fill-opacity:1;fill-rule:evenodd"
     id="g4683">
    <g
       style="fill:#6b7387;fill-opacity:1"
       transform="matrix(0.26458,0,0,0.26458,0,3.209)"
       id="g4674">
      <mask
         id="b-4"
         fill="#fff">
        <use
           y="0"
           x="0"
           height="100%"
           width="100%"
           xlink:href="#a-0"
           id="use4669" />
      </mask>
      <path
         style="fill:#6b7387;fill-opacity:1"
         d="m 2.084,5.151 c 0,-1.184 4.617,-3.067 8.458,-3.067 3.84,0 8.457,1.883 8.457,3.067 V 6.872 H 2.084 Z M 0,8.956 H 21.083 V 5.151 C 21.083,1.818 14.119,0 10.542,0 6.964,0 0,1.818 0,5.151 Z"
         mask="url(#b-4)"
         id="path4672" />
    </g>
    <g
       style="fill:#6b7387;fill-opacity:1"
       transform="matrix(0.26458,0,0,0.26458,1.426,0)"
       id="g4681">
      <mask
         id="d-7"
         fill="#fff">
        <use
           y="0"
           x="0"
           height="100%"
           width="100%"
           xlink:href="#c"
           id="use4676" />
      </mask>
      <path
         style="fill:#6b7387;fill-opacity:1"
         d="M 5.152,2.219 A 2.936,2.936 0 0 1 8.084,5.152 2.936,2.936 0 0 1 5.152,8.085 2.937,2.937 0 0 1 2.219,5.152 2.936,2.936 0 0 1 5.152,2.219 m 0,8.085 A 5.157,5.157 0 0 0 10.303,5.152 5.157,5.157 0 0 0 5.152,0 5.157,5.157 0 0 0 0,5.152 5.157,5.157 0 0 0 5.152,10.304"
         mask="url(#d-7)"
         id="path4679" />
    </g>
  </g>
  <g
     transform="translate(3.8946767,-21.697088)"
     id="layer1" />
</svg>
